X:128
T:The Labours of Marlow
M:C|
L:1/8
C:© Paul Gitlitz 1992
R:Reel
B:Giblitz Fancy
N: Written for the birth of Jessica, my second Godchild.
K:Am
"Am"G,A, E2 [A,4E4]|"G"G3D G,A, (3B,A,G,|"Am"G,A, E2 [A,4E4]|"G"G^FGD G,A, (3B,A,G,|!
"Am"G,A, E2 [A,4E4]|"G"G3D G,A, (3B,A,G,|"C"CB,CD EGED|CG,B,G, "Am"[A,4E4]:|!
|:"A"e a2 b aged|"Em"ede^f "G"gfed|"A"e a2 b aged|"D"ed^fd "G"g4|!
"A"ea2b aged|"Em"ede^f "G"gfed|"C"cBcd "G"egag|"Em"edBc "Am"A4:|]
